svgs/go_ngaji.svg

<svg width="192" height="192" viewBox="0 0 192 192" fill="none" xmlns="http://www.w3.org/2000/svg">
<path d="M164 144V28C164 24.6863 161.314 22 158 22H129.051C123.203 22 117.54 24.0504 113.047 27.7945L96 42L78.9534 27.7945C74.4605 24.0504 68.7972 22 62.9488 22H34C30.6863 22 28 24.6863 28 28V144C28 147.314 30.6863 150 34 150H62.9487C68.7972 150 74.4605 152.05 78.9534 155.794L96 170L113.047 155.794C117.54 152.05 123.203 150 129.051 150H158C161.314 150 164 147.314 164 144Z" stroke="black" stroke-width="12" stroke-linejoin="round"/>
<circle cx="96" cy="85" r="16" stroke="black" stroke-width="12"/>
<path d="M134 85C134 105.987 116.987 123 96 123C75.0132 123 58 105.987 58 85" stroke="black" stroke-width="12" stroke-linecap="round"/>
</svg>

<svg width="192" height="192" fill="none" xmlns="http://www.w3.org/2000/svg"><path d="M164 144V28a6 6 0 0 0-6-6h-28.949a25 25 0 0 0-16.004 5.794L96 42 78.953 27.794A25 25 0 0 0 62.95 22H34a6 6 0 0 0-6 6v116a6 6 0 0 0 6 6h28.949a25 25 0 0 1 16.004 5.794L96 170l17.047-14.206A25 25 0 0 1 129.051 150H158a6 6 0 0 0 6-6Z" stroke="#000" stroke-width="12" stroke-linejoin="round"/><path d="M96 132v-10" stroke="#000" stroke-width="12" stroke-linecap="round" stroke-linejoin="round"/><path d="M96 100c8.837 0 16-7.163 16-16s-7.163-16-16-16-16 7.163-16 16 7.163 16 16 16Z" stroke="#000" stroke-width="12"/><path d="M134 84c0 20.987-17.013 38-38 38s-38-17.013-38-38" stroke="#000" stroke-width="12" stroke-linecap="round"/></svg>
